instagram/img/airplane.svg

<svg xmlns="http://www.w3.org/2000/svg" width="24" height="24" viewBox="0 0 24 24"><path d="M0 12l11 3.1 7-8.1-8.156 5.672-4.312-1.202 15.362-7.68-3.974 14.57-3.75-3.339-2.17 2.925v-.769l-2-.56v7.383l4.473-6.031 4.527 4.031 6-22z"/></svg>

<svg width="24" height="24" viewBox="0 0 24 24" fill="none" xmlns="http://www.w3.org/2000/svg">
<path d="M0 12L11 15.1L18 7L9.844 12.672L5.532 11.47L20.894 3.79L16.92 18.36L13.17 15.021L11 17.946V17.177L9 16.617V24L13.473 17.969L18 22L24 0L0 12Z" fill="black"/>
</svg>
